; generated by PrusaSlicer 2.9.0 on 2025-01-27 at 02:33:20 UTC

; 

; external perimeters extrusion width = 0.68mm
; perimeters extrusion width = 0.68mm
; infill extrusion width = 0.68mm
; solid infill extrusion width = 0.68mm
; top infill extrusion width = 0.60mm
; support material extrusion width = 0.60mm
; first layer extrusion width = 0.70mm

M201 X500 Y500 Z100 E5000 ; sets maximum accelerations, mm/sec^2
M203 X500 Y500 Z10 E60 ; sets maximum feedrates, mm / sec
M204 S500 T1000 ; sets acceleration (S) and retract acceleration (R), mm/sec^2
M205 X8.00 Y8.00 Z0.40 E5.00 ; sets the jerk limits, mm/sec
M205 S0 T0 ; sets the minimum extruding and travel feed rate, mm/sec

; printing object BigServo-bearingstack_7 id:0 copy 0
; stop printing object BigServo-bearingstack_7 id:0 copy 0

;TYPE:Custom
G90 ; use absolute coordinates
M83 ; extruder relative mode
M104 S150 ; set temporary nozzle temp to prevent oozing during homing
M140 S60 ; set final bed temp
G4 S30 ; allow partial nozzle warmup
G28 ; home all axis
G29 ; auto bed leveling
M420 S1 ; auto bed leveling enable
G1 Z50 F240
G1 X2.0 Y10 F3000
M104 S210 ; set final nozzle temp
M190 S60 ; wait for bed temp to stabilize
M109 S210 ; wait for nozzle temp to stabilize
G1 Z0.28 F240
G92 E0
G1 X2.0 Y140 E10 F1500 ; prime the nozzle
G1 X2.3 Y140 F5000
G92 E0
G1 X2.3 Y10 E10 F1200 ; prime the nozzle
G92 E0
G21 ; set units to millimeters
G90 ; use absolute coordinates
M83 ; use relative distances for extrusion
; Filament gcode
M107
;LAYER_CHANGE
;Z:0.35
;HEIGHT:0.35
G1 E-6 F3600
G1 Z.35 F7800
; printing object BigServo-bearingstack_7 id:0 copy 0
G1 X196.91 Y260.303
G1 Z.35
G1 E6 F2400
;TYPE:Perimeter
;WIDTH:0.7
G1 F1800
G1 X191.969 Y262.685 E.59852
G1 X186.842 Y264.848 E.60718
G1 X181.613 Y266.753 E.60725
G1 X176.297 Y268.395 E.6071
G1 X170.905 Y269.77 E.60718
G1 X165.451 Y270.875 E.60721
G1 X159.949 Y271.705 E.60715
G1 X154.41 Y272.262 E.60744
G1 X148.849 Y272.542 E.60756
G1 X143.29 Y272.543 E.60657
G1 X137.733 Y272.267 E.6071
G1 X132.196 Y271.715 E.60717
G1 X126.693 Y270.888 E.6072
G1 X121.238 Y269.787 E.60723
G1 X115.846 Y268.416 E.60707
G1 X110.528 Y266.778 E.60718
G1 X105.298 Y264.876 E.60724
G1 X100.17 Y262.717 E.60711
G1 X95.155 Y260.304 E.60726
G1 X90.268 Y257.645 E.60707
G1 X85.519 Y254.745 E.60717
G1 X80.92 Y251.612 E.6072
G1 X76.483 Y248.254 E.60717
G1 X72.219 Y244.678 E.60723
G1 X68.139 Y240.895 E.60711
G1 X64.252 Y236.913 E.60719
G1 X60.569 Y232.742 E.60715
G1 X57.098 Y228.393 E.60715
G1 X53.848 Y223.876 E.60719
G1 X50.827 Y219.202 E.60726
G1 X48.043 Y214.384 E.60717
G1 X45.503 Y209.434 E.60708
G1 X43.213 Y204.362 E.60723
G1 X41.178 Y199.183 E.60717
G1 X39.404 Y193.909 E.60716
G1 X37.894 Y188.553 E.6072
G1 X36.655 Y183.128 E.60719
G1 X35.687 Y177.649 E.6071
G1 X34.993 Y172.128 E.60717
G1 X34.575 Y166.579 E.6072
G1 X34.434 Y161.016 E.6072
G1 X34.464 Y159.739 E.13938
G1 X34.571 Y155.453 E.46781
G1 X34.993 Y149.827 E.61561
G1 X35.687 Y144.306 E.60717
G1 X36.655 Y138.826 E.60721
G1 X37.894 Y133.402 E.60709
G1 X39.404 Y128.046 E.6072
G1 X41.178 Y122.772 E.60716
G1 X43.213 Y117.593 E.60717
G1 X45.469 Y112.591 E.59874
G1 X48.006 Y107.639 E.60712
G1 X50.787 Y102.819 E.6072
G1 X53.804 Y98.143 E.60721
G1 X57.051 Y93.624 E.60718
G1 X60.519 Y89.273 E.60712
G1 X64.199 Y85.099 E.60718
G1 X68.083 Y81.114 E.60719
G1 X72.167 Y77.322 E.6081
G1 X76.422 Y73.75 E.6062
G1 X80.857 Y70.388 E.60726
G1 X85.453 Y67.252 E.60711
G1 X90.2 Y64.349 E.60715
G1 X95.086 Y61.686 E.60718
G1 X100.099 Y59.27 E.60721
G1 X105.226 Y57.107 E.60718
G1 X110.454 Y55.202 E.60715
G1 X115.771 Y53.559 E.60723
G1 X121.163 Y52.185 E.60715
G1 X126.616 Y51.08 E.6071
G1 X132.118 Y50.249 E.60716
G1 X137.657 Y49.693 E.60743
G1 X143.218 Y49.413 E.60756
G1 X148.777 Y49.412 E.60657
G1 X154.335 Y49.688 E.60721
G1 X159.872 Y50.24 E.60717
G1 X165.374 Y51.067 E.6071
G1 X170.829 Y52.168 E.60723
G1 X176.222 Y53.538 E.60715
G1 X181.54 Y55.177 E.60721
G1 X186.769 Y57.078 E.6071
G1 X191.898 Y59.238 E.60726
G1 X196.912 Y61.651 E.60716
G1 X201.8 Y64.31 E.60716
G1 X206.549 Y67.21 E.60717
G1 X211.147 Y70.343 E.60711
G1 X215.584 Y73.701 E.60717
G1 X219.848 Y77.277 E.60723
G1 X223.929 Y81.06 E.60719
G1 X224.517 Y81.661 E.09174
G1 X227.815 Y85.042 E.51537
G1 X231.549 Y89.273 E.61574
G1 X235.017 Y93.624 E.60712
G1 X238.263 Y98.143 E.60712
G1 X241.281 Y102.819 E.60727
G1 X244.061 Y107.639 E.60714
G1 X246.598 Y112.591 E.60712
G1 X248.885 Y117.664 E.60719
G1 X250.916 Y122.845 E.60721
G1 X252.686 Y128.12 E.60712
G1 X254.173 Y133.402 E.59875
G1 X255.413 Y138.826 E.60711
G1 X256.38 Y144.306 E.60719
G1 X257.074 Y149.827 E.60717
G1 X257.492 Y155.376 E.6072
G1 X257.633 Y160.938 E.6071
G1 X257.496 Y166.501 E.60719
G1 X257.082 Y172.05 E.60716
G1 X256.392 Y177.572 E.60722
G1 X255.428 Y183.052 E.60713
G1 X254.192 Y188.478 E.60723
G1 X252.686 Y193.835 E.60719
G1 X250.916 Y199.11 E.60712
G1 X248.885 Y204.291 E.60721
G1 X246.598 Y209.364 E.60719
G1 X244.061 Y214.316 E.60712
G1 X241.281 Y219.136 E.60714
G1 X238.263 Y223.811 E.60718
G1 X235.017 Y228.331 E.6072
G1 X231.549 Y232.682 E.60712
G1 X227.868 Y236.856 E.60725
G1 X223.984 Y240.84 E.60711
G1 X219.9 Y244.632 E.6081
G1 X215.645 Y248.205 E.60627
G1 X211.211 Y251.566 E.6071
G1 X206.614 Y254.703 E.60727
G1 X201.867 Y257.606 E.60715
G1 X196.991 Y260.263 E.60591
G1 X196.991 Y260.263 F7800
G1 X196.639 Y259.741
G1 F1800
G1 X191.697 Y262.122 E.59857
G1 X186.599 Y264.272 E.60372
G1 X181.4 Y266.166 E.60376
G1 X176.113 Y267.798 E.60375
G1 X170.751 Y269.164 E.60376
G1 X165.327 Y270.262 E.60385
G1 X159.856 Y271.088 E.60374
G1 X154.349 Y271.64 E.60391
G1 X148.82 Y271.917 E.60406
G1 X143.29 Y271.918 E.60341
G1 X137.764 Y271.643 E.60372
G1 X132.258 Y271.093 E.60378
G1 X126.786 Y270.27 E.6038
G1 X121.362 Y269.175 E.60378
G1 X116 Y267.811 E.60371
G1 X110.712 Y266.181 E.60379
G1 X105.512 Y264.289 E.60379
G1 X100.413 Y262.141 E.60373
G1 X95.427 Y259.741 E.6038
G1 X90.567 Y257.096 E.60375
G1 X85.844 Y254.212 E.60384
G1 X81.272 Y251.096 E.60372
G1 X76.86 Y247.755 E.60387
G1 X72.621 Y244.199 E.60374
G1 X68.564 Y240.437 E.60371
G1 X64.699 Y236.476 E.60387
G1 X61.037 Y232.328 E.60376
G1 X57.586 Y228.003 E.60374
G1 X54.355 Y223.511 E.60377
G1 X51.352 Y218.863 E.60381
G1 X48.585 Y214.072 E.6037
G1 X46.059 Y209.148 E.60386
G1 X43.783 Y204.105 E.60372
G1 X41.76 Y198.955 E.60374
G1 X39.996 Y193.71 E.60381
G1 X38.496 Y188.384 E.60376
G1 X37.264 Y182.989 E.60383
G1 X36.302 Y177.54 E.60376
G1 X35.613 Y172.05 E.60374
G1 X35.198 Y166.532 E.6038
G1 X35.059 Y161.001 E.60371
G1 X35.089 Y159.755 E.136
G1 X35.196 Y155.469 E.46781
G1 X35.613 Y149.905 E.60882
G1 X36.302 Y144.415 E.60374
G1 X37.264 Y138.965 E.60387
G1 X38.496 Y133.571 E.60373
G1 X39.996 Y128.245 E.60376
G1 X41.76 Y123 E.60381
G1 X43.783 Y117.85 E.60374
G1 X46.039 Y112.848 E.59874
G1 X48.562 Y107.924 E.60371
G1 X51.328 Y103.131 E.60383
G1 X54.329 Y98.482 E.60379
G1 X57.558 Y93.989 E.60373
G1 X61.007 Y89.662 E.60378
G1 X64.668 Y85.513 E.60377
G1 X68.53 Y81.551 E.60372
G1 X72.59 Y77.783 E.6044
G1 X76.824 Y74.228 E.60325
G1 X81.234 Y70.886 E.60377
G1 X85.805 Y67.768 E.60375
G1 X90.526 Y64.882 E.60376
G1 X95.385 Y62.235 E.60376
G1 X100.37 Y59.833 E.60379
G1 X105.468 Y57.683 E.60372
G1 X110.668 Y55.789 E.60387
G1 X115.955 Y54.157 E.60375
G1 X121.317 Y52.79 E.60379
G1 X126.74 Y51.693 E.60372
G1 X132.212 Y50.867 E.60384
G1 X137.718 Y50.315 E.6038
G1 X143.247 Y50.038 E.60406
G1 X148.777 Y50.037 E.60341
G1 X154.304 Y50.312 E.60383
G1 X159.809 Y50.861 E.60366
G1 X165.281 Y51.685 E.60381
G1 X170.705 Y52.78 E.60378
G1 X176.068 Y54.144 E.60382
G1 X181.355 Y55.774 E.60369
G1 X186.556 Y57.666 E.60389
G1 X191.655 Y59.813 E.60369
G1 X196.641 Y62.214 E.60384
G1 X201.501 Y64.859 E.60375
G1 X206.223 Y67.743 E.60374
G1 X210.795 Y70.859 E.60372
G1 X215.207 Y74.199 E.60381
G1 X219.446 Y77.755 E.60374
G1 X223.504 Y81.518 E.60387
G1 X224.07 Y82.097 E.08835
G1 X227.368 Y85.478 E.51537
G1 X231.06 Y89.662 E.60887
G1 X234.509 Y93.989 E.60378
G1 X237.738 Y98.482 E.60373
G1 X240.739 Y103.131 E.60379
G1 X243.505 Y107.924 E.60383
G1 X246.029 Y112.848 E.60376
G1 X248.303 Y117.893 E.60382
G1 X250.323 Y123.044 E.60373
G1 X252.085 Y128.289 E.60374
G1 X253.571 Y133.571 E.59872
G1 X254.803 Y138.965 E.60373
G1 X255.765 Y144.415 E.60387
G1 X256.454 Y149.905 E.60374
G1 X256.869 Y155.422 E.60369
G1 X257.008 Y160.954 E.60382
G1 X256.871 Y166.486 E.60381
G1 X256.459 Y172.004 E.60377
G1 X255.772 Y177.494 E.60372
G1 X254.813 Y182.944 E.60382
G1 X253.583 Y188.339 E.60378
G1 X252.085 Y193.666 E.6038
G1 X250.323 Y198.911 E.60374
G1 X248.303 Y204.062 E.60373
G1 X246.028 Y209.106 E.60377
G1 X243.505 Y214.031 E.60381
G1 X240.739 Y218.824 E.60383
G1 X237.738 Y223.472 E.60369
G1 X234.509 Y227.966 E.60382
G1 X231.06 Y232.293 E.60378
G1 X227.4 Y236.442 E.60369
G1 X223.537 Y240.404 E.6038
G1 X219.478 Y244.172 E.60432
G1 X215.244 Y247.726 E.60318
G1 X210.833 Y251.068 E.60385
G1 X206.262 Y254.186 E.60375
G1 X201.541 Y257.073 E.60382
G1 X196.72 Y259.7 E.59907
G1 X196.72 Y259.7 F7800
G1 X196.369 Y259.178
;TYPE:External perimeter
G1 F1800
G1 X191.426 Y261.559 E.59867
G1 X186.356 Y263.696 E.60035
G1 X181.186 Y265.579 E.60038
G1 X175.928 Y267.201 E.60041
G1 X170.596 Y268.559 E.60038
G1 X165.203 Y269.65 E.60038
G1 X159.763 Y270.47 E.60029
G1 X154.287 Y271.018 E.6005
G1 X148.791 Y271.293 E.60045
G1 X143.29 Y271.293 E.60024
G1 X137.779 Y271.018 E.60208
G1 X132.305 Y270.47 E.60028
G1 X126.879 Y269.652 E.59875
G1 X121.486 Y268.562 E.60036
G1 X116.154 Y267.205 E.60035
G1 X110.896 Y265.584 E.60037
G1 X105.726 Y263.702 E.60034
G1 X100.655 Y261.566 E.60041
G1 X95.698 Y259.178 E.60038
G1 X90.865 Y256.547 E.60043
G1 X86.17 Y253.678 E.60037
G1 X81.624 Y250.579 E.60033
G1 X77.238 Y247.257 E.60036
G1 X73.023 Y243.721 E.60033
G1 X68.989 Y239.979 E.60039
G1 X65.147 Y236.04 E.6004
G1 X61.506 Y231.915 E.60036
G1 X58.075 Y227.613 E.60042
G1 X54.863 Y223.146 E.60034
G1 X51.877 Y218.524 E.60042
G1 X49.126 Y213.759 E.60037
G1 X46.615 Y208.863 E.60039
G1 X44.352 Y203.848 E.60035
G1 X42.342 Y198.727 E.60028
G1 X40.589 Y193.511 E.60043
G1 X39.098 Y188.215 E.60034
G1 X37.873 Y182.85 E.60047
G1 X36.918 Y177.432 E.6003
G1 X36.233 Y171.972 E.60044
G1 X35.822 Y166.486 E.60028
G1 X35.684 Y160.985 E.60043
G1 X35.714 Y159.771 E.13251
G1 X35.821 Y155.485 E.46781
G1 X36.233 Y149.982 E.60214
G1 X36.918 Y144.523 E.60033
G1 X37.873 Y139.104 E.60041
G1 X39.094 Y133.755 E.59867
G1 X40.584 Y128.459 E.60031
G1 X42.342 Y123.228 E.60215
G1 X44.352 Y118.107 E.60028
G1 X46.608 Y113.105 E.59874
G1 X49.126 Y108.195 E.6021
G1 X51.869 Y103.444 E.59861
G1 X54.854 Y98.822 E.60036
G1 X58.065 Y94.354 E.60037
G1 X61.496 Y90.052 E.60042
G1 X65.136 Y85.926 E.60037
G1 X68.978 Y81.987 E.6004
G1 X73.012 Y78.243 E.60054
G1 X77.226 Y74.707 E.60024
G1 X81.611 Y71.385 E.60027
G1 X86.157 Y68.285 E.60039
G1 X90.852 Y65.415 E.60043
G1 X95.684 Y62.784 E.60034
G1 X100.641 Y60.396 E.60038
G1 X105.711 Y58.259 E.60035
G1 X110.881 Y56.376 E.60038
G1 X116.139 Y54.754 E.60041
G1 X121.471 Y53.396 E.60038
G1 X126.864 Y52.305 E.60038
G1 X132.305 Y51.485 E.6004
G1 X137.78 Y50.937 E.60039
G1 X143.276 Y50.662 E.60045
G1 X148.777 Y50.661 E.60024
G1 X154.288 Y50.937 E.60209
G1 X159.763 Y51.485 E.60039
G1 X165.188 Y52.302 E.59863
G1 X170.581 Y53.393 E.60038
G1 X175.913 Y54.749 E.60032
G1 X181.171 Y56.371 E.60041
G1 X186.342 Y58.253 E.60044
G1 X191.412 Y60.389 E.60031
G1 X196.37 Y62.777 E.60048
G1 X201.202 Y65.408 E.60034
G1 X205.897 Y68.276 E.60032
G1 X210.443 Y71.376 E.60039
G1 X214.83 Y74.697 E.60038
G1 X219.045 Y78.234 E.6004
G1 X223.079 Y81.976 E.60039
G1 X223.622 Y82.533 E.08488
G1 X226.921 Y85.915 E.51552
G1 X230.572 Y90.052 E.60206
G1 X234.002 Y94.354 E.60035
G1 X237.213 Y98.822 E.60037
G1 X240.198 Y103.444 E.60036
G1 X242.949 Y108.209 E.60037
G1 X245.459 Y113.105 E.60034
G1 X247.721 Y118.121 E.6004
G1 X249.726 Y123.228 E.59866
G1 X251.479 Y128.444 E.60043
G1 X252.97 Y133.74 E.60034
G1 X254.194 Y139.104 E.60034
G1 X255.15 Y144.523 E.60043
G1 X255.834 Y149.982 E.60032
G1 X256.246 Y155.469 E.6004
G1 X256.384 Y160.97 E.60043
G1 X256.247 Y166.47 E.60032
G1 X255.834 Y171.972 E.60204
G1 X255.15 Y177.432 E.60043
G1 X254.194 Y182.85 E.60032
G1 X252.974 Y188.2 E.59875
G1 X251.483 Y193.496 E.60034
G1 X249.731 Y198.712 E.60039
G1 X247.721 Y203.834 E.60038
G1 X245.459 Y208.849 E.6003
G1 X242.949 Y213.746 E.60044
G1 X240.198 Y218.511 E.60037
G1 X237.213 Y223.133 E.60036
G1 X234.002 Y227.601 E.60037
G1 X230.572 Y231.903 E.60035
G1 X226.931 Y236.029 E.60044
G1 X223.09 Y239.968 E.60032
G1 X219.055 Y243.712 E.60062
G1 X214.842 Y247.248 E.60016
G1 X210.456 Y250.57 E.60036
G1 X205.91 Y253.67 E.60039
G1 X201.215 Y256.539 E.60037
G1 X196.448 Y259.136 E.59233
G1 E-4.2 F3600
;WIPE_START
G1 F6240
G1 X196.369 Y259.178 E-.04904
G1 X193.491 Y260.565 E-1.75096
;WIPE_END
G1 X27.802 Y157.89 F7800
G1 E6 F2400
;TYPE:Perimeter
G1 F1800
G1 X28.417 Y157.905 E.06713
G1 X29.018 Y158.042 E.06726
G1 X29.58 Y158.295 E.06725
G1 X30.082 Y158.656 E.06747
G1 X30.501 Y159.107 E.06717
G1 X30.822 Y159.632 E.06715
G1 X31.034 Y160.212 E.06738
G1 X31.126 Y160.82 E.0671
G1 X31.11 Y161.247 E.04662
G1 X31.018 Y161.773 E.05827
G1 X30.753 Y162.459 E.08024
G1 X30.408 Y162.965 E.06682
G1 X29.965 Y163.397 E.06752
G1 X29.541 Y163.678 E.0555
G1 X29.164 Y163.86 E.04568
G1 X28.57 Y164.027 E.06733
G1 X27.955 Y164.072 E.06729
G1 X27.345 Y163.996 E.06708
G1 X26.76 Y163.799 E.06735
G1 X26.224 Y163.489 E.06756
G1 X25.764 Y163.082 E.06702
G1 X25.392 Y162.591 E.06722
G1 X25.124 Y162.035 E.06735
G1 X24.972 Y161.439 E.06711
G1 X24.934 Y160.939 E.05472
G1 X25.049 Y160.182 E.08355
G1 X25.315 Y159.496 E.08028
G1 X25.66 Y158.989 E.06691
G1 X26.102 Y158.557 E.06744
G1 X26.621 Y158.222 E.0674
G1 X27.193 Y157.997 E.06707
G1 X27.713 Y157.906 E.0576
G1 X27.713 Y157.906 F7800
G1 X27.849 Y158.522
G1 F1800
G1 X27.977 Y158.503 E.01412
G1 X28.554 Y158.561 E.06328
G1 X29.023 Y158.712 E.05376
G1 X29.453 Y158.953 E.05379
G1 X29.825 Y159.274 E.05361
G1 X30.127 Y159.663 E.05374
G1 X30.346 Y160.104 E.05373
G1 X30.473 Y160.579 E.05365
G1 X30.498 Y161.116 E.05866
G1 X30.402 Y161.665 E.06081
G1 X30.19 Y162.187 E.06148
G1 X29.909 Y162.589 E.05352
G1 X29.552 Y162.929 E.05379
G1 X29.112 Y163.204 E.05662
G1 X28.581 Y163.391 E.06143
G1 X28.001 Y163.449 E.0636
G1 X27.514 Y163.394 E.05348
G1 X27.045 Y163.243 E.05376
G1 X26.614 Y163.001 E.05393
G1 X26.242 Y162.681 E.05354
G1 X25.94 Y162.292 E.05374
G1 X25.721 Y161.851 E.05373
G1 X25.594 Y161.376 E.05365
G1 X25.573 Y160.816 E.06115
G1 X25.665 Y160.29 E.05827
G1 X25.877 Y159.768 E.06148
G1 X26.158 Y159.366 E.05352
G1 X26.515 Y159.026 E.05379
G1 X26.933 Y158.764 E.05383
G1 X27.393 Y158.59 E.05366
G1 X27.76 Y158.535 E.04049
G1 X27.76 Y158.535 F7800
G1 X27.896 Y159.142
;TYPE:External perimeter
G1 F1800
G1 X27.957 Y159.13 E.00678
G1 X28.385 Y159.162 E.04683
G1 X28.738 Y159.268 E.04022
G1 X29.063 Y159.442 E.04023
G1 X29.346 Y159.676 E.04007
G1 X29.578 Y159.962 E.04018
G1 X29.749 Y160.288 E.04017
G1 X29.852 Y160.641 E.04012
G1 X29.879 Y161.031 E.04266
G1 X29.787 Y161.557 E.05827
G1 X29.595 Y161.968 E.0495
G1 X29.368 Y162.258 E.04018
G1 X29.088 Y162.497 E.04017
G1 X28.766 Y162.675 E.04015
G1 X28.415 Y162.787 E.0402
G1 X28.048 Y162.826 E.04027
G1 X27.683 Y162.793 E.03999
G1 X27.329 Y162.687 E.04032
G1 X27.004 Y162.513 E.04023
G1 X26.721 Y162.279 E.04007
G1 X26.489 Y161.993 E.04018
G1 X26.318 Y161.667 E.04017
G1 X26.216 Y161.313 E.0402
G1 X26.188 Y160.924 E.04256
G1 X26.28 Y160.398 E.05827
G1 X26.472 Y159.987 E.0495
G1 X26.699 Y159.697 E.04018
G1 X26.98 Y159.458 E.04025
G1 X27.44 Y159.233 E.05588
G1 X27.808 Y159.16 E.04094
G1 E-4.2 F3600
;WIPE_START
G1 F6240
G1 X27.896 Y159.142 E-.04923
G1 X27.957 Y159.13 E-.03407
G1 X28.385 Y159.162 E-.23523
G1 X28.738 Y159.268 E-.20201
G1 X29.063 Y159.442 E-.20205
G1 X29.346 Y159.676 E-.20126
G1 X29.578 Y159.962 E-.20184
G1 X29.749 Y160.288 E-.20176
G1 X29.852 Y160.641 E-.20154
G1 X29.879 Y161.031 E-.21426
G1 X29.861 Y161.133 E-.05675
;WIPE_END
G1 X61.052 Y247.088 F7800
G1 E6 F2400
;TYPE:Perimeter
G1 F1800
G1 X60.848 Y246.975 E.02545
G1 X60.403 Y246.608 E.06294
G1 X59.952 Y246.029 E.08008
G1 X59.685 Y245.474 E.0672
